bundles/org.openhab.ui.habpanel/web/assets/icons/smarthome-set/sun.svg

<?xml version="1.0" encoding="UTF-8" standalone="no"?>
<svg width="32px" height="32px" viewBox="0 0 32 32" version="1.1" xmlns="http://www.w3.org/2000/svg" xmlns:xlink="http://www.w3.org/1999/xlink" xmlns:sketch="http://www.bohemiancoding.com/sketch/ns">
    <!-- Generator: Sketch 3.3.2 (12043) - http://www.bohemiancoding.com/sketch -->
    <title>sun</title>
    <desc>Created with Sketch.</desc>
    <defs></defs>
    <g id="flatten" stroke="none" stroke-width="1" fill="none" fill-rule="evenodd" sketch:type="MSPage">
        <g id="z-copy" sketch:type="MSArtboardGroup" transform="translate(-4.000000, -68.000000)" fill="#000000">
            <g id="sun" sketch:type="MSLayerGroup" transform="translate(4.000000, 68.000000)">
                <path d="M10.7878017,28.5833599 L10.7878017,28.5833599 C9.97956177,28.2485759 9.4161758,28.2142601 8.29387705,28.3294851 C7.147197,28.4472132 6.68503398,28.4437606 5.9948931,28.1848231 C5.52665568,28.0091428 5.09503731,27.7224543 4.6862915,27.3137085 C4.27754569,26.9049627 3.99085724,26.4733443 3.81517687,26.0051069 C3.55623942,25.314966 3.55278681,24.852803 3.67051494,23.706123 C3.78573987,22.5838242 3.75142407,22.0204382 3.41664014,21.2121983 C3.15165448,20.5724663 2.80939234,20.1202916 2.29849594,19.6618451 C2.19130602,19.5656595 2.07903528,19.4706346 1.92664559,19.3458637 C1.99434961,19.4012972 1.62189171,19.0978662 1.52833472,19.0196686 C0.480903976,18.1441953 0,17.3440478 0,16 C0,14.6559522 0.480903976,13.8558047 1.52833472,12.9803314 C1.62189171,12.9021338 1.99434961,12.5987028 1.92664559,12.6541363 C2.07903528,12.5293654 2.19130602,12.4343405 2.29849594,12.3381549 C2.80939234,11.8797084 3.15165448,11.4275337 3.41664014,10.7878017 C3.75142407,9.97956177 3.78573987,9.4161758 3.67051494,8.29387705 C3.55278681,7.147197 3.55623942,6.68503398 3.81517687,5.9948931 C3.99085724,5.52665568 4.27754569,5.09503731 4.6862915,4.6862915 C5.09503731,4.27754569 5.52665568,3.99085724 5.9948931,3.81517687 C6.68503398,3.55623942 7.147197,3.55278681 8.29387705,3.67051494 C9.4161758,3.78573987 9.97956177,3.75142407 10.7878017,3.41664014 C11.4275337,3.15165448 11.8797084,2.80939234 12.3381549,2.29849594 C12.4343405,2.19130602 12.5293654,2.07903528 12.6541363,1.92664559 C12.5987028,1.99434961 12.9021338,1.62189171 12.9803314,1.52833472 C13.8558047,0.480903976 14.6559522,0 16,0 C17.3440478,0 18.1441953,0.480903976 19.0196686,1.52833472 C19.0978662,1.62189171 19.4012972,1.99434961 19.3458637,1.92664559 C19.4706346,2.07903528 19.5656595,2.19130602 19.6618451,2.29849594 C20.1202916,2.80939234 20.5724663,3.15165448 21.2121983,3.41664014 C22.0204382,3.75142407 22.5838242,3.78573987 23.706123,3.67051494 C24.852803,3.55278681 25.314966,3.55623942 26.0051069,3.81517687 C26.4733443,3.99085724 26.9049627,4.27754569 27.3137085,4.6862915 C27.7224543,5.09503731 28.0091428,5.52665568 28.1848231,5.9948931 C28.4437606,6.68503398 28.4472132,7.147197 28.3294851,8.29387705 C28.2142601,9.4161758 28.2485759,9.97956177 28.5833599,10.7878017 C28.8483455,11.4275337 29.1906077,11.8797084 29.7015041,12.3381549 C29.808694,12.4343405 29.9209647,12.5293654 30.0733544,12.6541363 C30.0056504,12.5987028 30.3781083,12.9021338 30.4716653,12.9803314 C31.519096,13.8558047 32,14.6559522 32,16 C32,17.3440478 31.519096,18.1441953 30.4716653,19.0196686 C30.3781083,19.0978662 30.0056504,19.4012972 30.0733544,19.3458637 C29.9209647,19.4706346 29.808694,19.5656595 29.7015041,19.6618451 C29.1906077,20.1202916 28.8483455,20.5724663 28.5833599,21.2121983 C28.2485759,22.0204382 28.2142601,22.5838242 28.3294851,23.706123 C28.4472132,24.852803 28.4437606,25.314966 28.1848231,26.0051069 C28.0091428,26.4733443 27.7224543,26.9049627 27.3137085,27.3137085 C26.9049627,27.7224543 26.4733443,28.0091428 26.0051069,28.1848231 C25.314966,28.4437606 24.852803,28.4472132 23.706123,28.3294851 C22.5838242,28.2142601 22.0204382,28.2485759 21.2121983,28.5833599 C20.5724663,28.8483455 20.1202916,29.1906077 19.6618451,29.7015041 C19.5656595,29.808694 19.4706346,29.9209647 19.3458637,30.0733544 C19.4012972,30.0056504 19.0978662,30.3781083 19.0196686,30.4716653 C18.1441953,31.519096 17.3440478,32 16,32 C14.6559522,32 13.8558047,31.519096 12.9803314,30.4716653 C12.9021338,30.3781083 12.5987028,30.0056504 12.6541363,30.0733544 C12.5293654,29.9209647 12.4343405,29.808694 12.3381549,29.7015041 C11.8797084,29.1906077 11.4275337,28.8483455 10.7878017,28.5833599 L10.7878017,28.5833599 Z M11.1704851,27.6594803 C13.8221355,28.7578299 13.5852426,31 16,31 C18.4147574,31 18.1778645,28.7578299 20.8295149,27.6594803 C23.4811653,26.5611308 24.8991104,28.3140931 26.6066017,26.6066017 C28.3140931,24.8991104 26.5611308,23.4811653 27.6594803,20.8295149 C28.7578299,18.1778645 31,18.4147574 31,16 C31,13.5852426 28.7578299,13.8221355 27.6594803,11.1704851 C26.5611308,8.51883469 28.3140931,7.10088964 26.6066017,5.39339828 C24.8991104,3.68590692 23.4811653,5.43886924 20.8295149,4.34051967 C18.1778645,3.2421701 18.4147574,1 16,1 C13.5852426,1 13.8221355,3.2421701 11.1704851,4.34051967 C8.51883469,5.43886924 7.10088964,3.68590692 5.39339828,5.39339828 C3.68590692,7.10088964 5.43886924,8.51883469 4.34051967,11.1704851 C3.2421701,13.8221355 1,13.5852426 1,16 C1,18.4147574 3.2421701,18.1778645 4.34051967,20.8295149 C5.43886924,23.4811653 3.68590692,24.8991104 5.39339828,26.6066017 C7.10088964,28.3140931 8.51883469,26.5611308 11.1704851,27.6594803 L11.1704851,27.6594803 Z M16,26 C10.4771525,26 6,21.5228475 6,16 C6,10.4771525 10.4771525,6 16,6 C21.5228475,6 26,10.4771525 26,16 C26,21.5228475 21.5228475,26 16,26 L16,26 Z M16,24 C20.418278,24 24,20.418278 24,16 C24,11.581722 20.418278,8 16,8 C11.581722,8 8,11.581722 8,16 C8,20.418278 11.581722,24 16,24 L16,24 Z" sketch:type="MSShapeGroup"></path>
            </g>
        </g>
    </g>
</svg>

<svg width="32" height="32" xmlns="http://www.w3.org/2000/svg"><path d="M10.788 28.583c-.808-.334-1.372-.369-2.494-.254-1.147.118-1.609.115-2.3-.144-.467-.176-.899-.463-1.308-.871-.408-.409-.695-.84-.87-1.309-.26-.69-.263-1.152-.145-2.299.115-1.122.08-1.686-.254-2.494-.265-.64-.608-1.092-1.119-1.55-.107-.096-.219-.191-.371-.316l-.399-.326C.481 18.144 0 17.344 0 16s.48-2.144 1.528-3.02l.399-.326c.152-.125.264-.22.371-.316.511-.458.854-.91 1.119-1.55.334-.808.369-1.372.254-2.494-.118-1.147-.115-1.609.144-2.3.176-.467.463-.899.871-1.308.409-.408.84-.695 1.309-.87.69-.26 1.152-.263 2.299-.145 1.122.115 1.686.08 2.494-.254.64-.265 1.092-.608 1.55-1.119.096-.107.191-.219.316-.371l.326-.399C13.856.481 14.656 0 16 0s2.144.48 3.02 1.528l.326.399c.125.152.22.264.316.371.458.511.91.854 1.55 1.119.808.334 1.372.369 2.494.254 1.147-.118 1.609-.115 2.3.144.467.176.899.463 1.308.871.408.409.695.84.87 1.309.26.69.263 1.152.145 2.299-.115 1.122-.08 1.686.254 2.494.265.64.608 1.092 1.119 1.55.107.096.219.191.371.316l.399.326C31.519 13.856 32 14.656 32 16s-.48 2.144-1.528 3.02l-.399.326c-.152.125-.264.22-.371.316-.511.458-.854.91-1.119 1.55-.334.808-.369 1.372-.254 2.494.118 1.147.115 1.609-.144 2.3-.176.467-.463.899-.871 1.308-.409.408-.84.695-1.309.87-.69.26-1.152.263-2.299.145-1.122-.115-1.686-.08-2.494.254-.64.265-1.092.608-1.55 1.119-.096.107-.191.219-.316.371l-.326.399C18.144 31.519 17.344 32 16 32s-2.144-.48-3.02-1.528l-.326-.399c-.125-.152-.22-.264-.316-.371-.458-.511-.91-.854-1.55-1.119Zm.382-.924C13.822 28.758 13.585 31 16 31s2.178-2.242 4.83-3.34c2.651-1.099 4.07.654 5.777-1.053 1.707-1.708-.046-3.126 1.052-5.777C28.758 18.178 31 18.415 31 16s-2.242-2.178-3.34-4.83c-1.099-2.651.654-4.07-1.053-5.777-1.708-1.707-3.126.046-5.777-1.052C18.178 3.242 18.415 1 16 1s-2.178 2.242-4.83 3.34C8.52 5.44 7.1 3.687 5.393 5.394 3.686 7.101 5.44 8.52 4.341 11.17 3.242 13.822 1 13.585 1 16s2.242 2.178 3.34 4.83c1.099 2.651-.654 4.07 1.053 5.777 1.708 1.707 3.126-.046 5.777 1.052ZM16 26c-5.523 0-10-4.477-10-10S10.477 6 16 6s10 4.477 10 10-4.477 10-10 10Zm0-2a8 8 0 1 0 0-16 8 8 0 0 0 0 16Z" fill="#000" fill-rule="evenodd"/></svg>
